X: 41807
T: Victoria's
R: jig
M: 6/8
K: Cmajor
K: Cmin
C3 CDE|D2C CDE|GG,G, FG,E|G,G,EEDE|
C3 CDE|D2C CDE|AA,A, GA,F|A,A,EEDE|
C3 CDE|D2C CDE|GCC FCE|CCE EDE|
EDD DFF|FEE EAA|AGG Gcc|c=BB BGE:|
K: Cmaj
e3 edc|d2c cAG|Acc cAG|Acc cAG|
e3 edc|d2c cAG|Add dcd|edd dcd|
e3 edc|d2c cAG|Acc cAG|Acc cAG|
_e3 edc|d2c cd_e|g3ged|ged ged:|

